fs/tablet_20_filled.svg

<svg viewBox="0 0 20 20" fill="none" xmlns="http://www.w3.org/2000/svg" height="1em" width="1em">
  <path d="M2 6C2 4.89543 2.89543 4 4 4H16C17.1046 4 18 4.89543 18 6V14C18 15.1046 17.1046 16 16 16H4C2.89543 16 2 15.1046 2 14V6ZM8.5 12C8.22386 12 8 12.2239 8 12.5C8 12.7761 8.22386 13 8.5 13H11.5C11.7761 13 12 12.7761 12 12.5C12 12.2239 11.7761 12 11.5 12H8.5Z" fill="#212121"/>
</svg>

<svg viewBox="0 0 20 20" fill="none" xmlns="http://www.w3.org/2000/svg" height="1em" width="1em">
  <path d="M2 6a2 2 0 0 1 2-2h12a2 2 0 0 1 2 2v8a2 2 0 0 1-2 2H4a2 2 0 0 1-2-2V6Zm6.5 6a.5.5 0 0 0 0 1h3a.5.5 0 0 0 0-1h-3Z" fill="#212121"/>
</svg>
